X:0439
M:C|
L:1/8
Q:1/4=80 "Slow"
K:E Minor
ef|g>fga Tg2eg |a>gab         a2ge |g3   a bage |    g2 d2 d2
ge|d<BA>G A2g>e|dB (c/B/A/G/) E2g>e|d<BA>G A>cBA| {A}G2 E2 E2:|

